X: 207
T: The Lanky Long Legs Mazurka
B: australian dance tunes
M:3/4
L:1/8
R: Mazurka
Q: 1/4=100
K:D
V:1 
d>c|B2 A2 d>c|B2 A2 d>c|B>F G>D F>G|E4 c>B|!
A2 E2 c>B|A2 E2 c>B|A>G F2 E2|D4 A>d|!
|:f2 f2 d>f|a2 a>b (3afd|e2 e>g f>e|1d4 A>d:|2d4 d>c||!
|:B2 B>c (3dcB|A2 A2 D>E|1F2 F2 B>A|F4 d>c:|2F2 F2 E2|D4||
% abcbook-tune_id 62a078502fe7caf4e11b7de3


% abcbook-boost 0
% abcbook-tablature 
% abcbook-transpose 
% abcbook-lastupdated 1654683750329
% abcbook-soundfonts 
% abcbook-repeats 1


